X:1485
T:Dantz
T:Dance
C:Paul Peuerl
O:Germany
B:Peuerl: "Newe Padouanen..." (1611)
R:Allemande
Z:Transcribed by Frank Nordberg - http://www.musicaviva.com
F:http://abc.musicaviva.com/tunes/peuerl-paul/peuerl-dantz-01-kbd.abc
M:C|
L:1/4
Q:1/4=188
K:Ddor
V:1
d|A/B/cBA|^G>ABc|def2|e3d/c/|BAA^G|A3::e|
V:2
D|DA,EF|E3A|GED2|C3D|EFE2|A,3::A,|
%
V:1
ffed|c>A^Ge|ffe^c|defe/d/|^cddc|d3:|
V:2
DDCB,|A,/B,/C/D/EC|D/E/F/G/AA|_BA/G/FG|A_BAA,|D3:|
W:
W:
W:  From Musica Viva - http://www.musicaviva.com
W:  the Internet center for free sheet music downloads.
